X: 33878
T: Red Gordon's
R: hornpipe
M: 4/4
K: Dmajor
AG|FDFA GABd|cAce d2 fe|df bag fed|cedB A2 AG|
FEFA GABd|cAce d2 fe|dfba gecA|d2f2d2:|
|:fg|abaf dfba|gfed e2 ef|gece Aceg|fedc d2 fg|
abaf dfba|gfed e2 AG|FAdf gecA|d2f2d2:|

